X:47
T:B047-  Buggering Oates, prepare thy neck
Q:1/4=120
L:1/4
M:4/4
K:Gm
D|GA/2B/2Ad|BA/2G/2^FD|\
GA/2B/2Ad|B2G:|A|Bc/2d/2cf|dc/2B/2cF|\
BGed3/4c/4|c2B2|AA/2B/2cA|dGF3/2f/2|\
d(c/2B/2) (c/2B/2)c|B2G|]

